docs/assets/img/logo-desktop.svg

<svg width="180" height="21" viewBox="0 0 180 21" fill="none" xmlns="http://www.w3.org/2000/svg">
<path d="M29.2583 3.95788C27.6802 2.37272 25.5859 1.38668 23.3435 1.1731C21.1011 0.959519 18.8541 1.53206 16.9974 2.79008C16.8349 2.90075 16.6762 3.01715 16.5194 3.13736C16.3626 3.25758 16.2156 3.38161 16.0684 3.519C15.9214 3.65639 15.8362 3.72699 15.722 3.83575L14.795 4.73451L14.3769 5.12569L13.9569 5.53022L8.8958 10.4343L13.8602 15.4298L14.2704 15.842L14.6808 16.2542C14.5317 16.382 14.3788 16.5023 14.222 16.6167C14.0653 16.7312 13.8989 16.8438 13.7344 16.9469C12.549 17.6833 11.1843 18.0915 9.78372 18.1283C8.3831 18.1651 6.99829 17.8293 5.77481 17.1561C4.55133 16.4829 3.53437 15.4972 2.83079 14.3027C2.12722 13.108 1.76302 11.7486 1.77646 10.3673C1.78989 8.98597 2.18047 7.63371 2.90716 6.45267C3.63385 5.2716 4.6698 4.30533 5.90614 3.6554C7.14251 3.00547 8.53358 2.69589 9.9332 2.75919C11.3328 2.8225 12.6893 3.25633 13.8602 4.01513L14.9053 3.00379L15.1549 2.77099C13.6904 1.73441 11.9586 1.12667 10.1592 1.01774C8.35968 0.908814 6.56552 1.30313 4.98336 2.15529C3.40117 3.00745 2.09522 4.28281 1.21587 5.83455C0.336514 7.38628 -0.0804969 9.15132 0.0128395 10.9265C0.106176 12.7016 0.706066 14.4146 1.74345 15.8684C2.78083 17.3222 4.21354 18.4576 5.87663 19.1439C7.53973 19.8302 9.36554 20.0395 11.144 19.7477C12.9224 19.4559 14.5811 18.6748 15.9291 17.4945C15.9872 17.4449 16.0433 17.3934 16.0994 17.3418L16.1885 17.2579L16.2736 17.1777L17.2026 16.2809L23.1075 10.5717L18.1374 5.57411L17.7271 5.16385L17.3168 4.74405C17.4658 4.6162 17.6187 4.49599 17.7755 4.3815C17.9323 4.26701 18.0987 4.15252 18.2651 4.05138C19.4504 3.31581 20.8147 2.90854 22.2147 2.87234C23.6147 2.83614 24.9988 3.17236 26.2215 3.84566C27.4442 4.51897 28.4604 5.50451 29.1634 6.69875C29.8664 7.89303 30.2302 9.25186 30.2165 10.6326C30.2029 12.0133 29.8123 13.365 29.0859 14.5455C28.3594 15.726 27.324 16.6919 26.0882 17.3416C24.8524 17.9913 23.462 18.3008 22.0629 18.2378C20.6639 18.1747 19.3079 17.7413 18.1374 16.9831L18.0213 17.0957L17.0923 17.9945L16.8426 18.2272C18.7892 19.6059 21.1895 20.2144 23.5691 19.9326C25.9487 19.6508 28.1345 18.4991 29.6946 16.7052C31.2546 14.9113 32.0754 12.6057 31.9946 10.244C31.9138 7.88234 30.9373 5.63646 29.2583 3.95025V3.95788ZM20.6051 10.5487L16.7865 14.2391L16.3704 14.6437L15.9543 15.0482L15.5439 14.636L11.3925 10.4686L15.2091 6.77817L16.0433 5.97101L16.4517 6.38318L16.862 6.79342L20.6051 10.5487Z" fill="#E51E2F"/>
<path d="M38.68 16.5V5.3H39.992L45.016 13.764H44.312L49.272 5.3H50.584L50.6 16.5H49.064L49.048 7.716H49.416L45 15.14H44.264L39.816 7.716H40.216V16.5H38.68ZM55.4173 10.132H61.1773V11.492H55.4173V10.132ZM55.5613 15.108H62.0893V16.5H53.9613V5.3H61.8653V6.692H55.5613V15.108ZM64.68 16.5V5.3H69.4C70.5947 5.3 71.6453 5.53467 72.552 6.004C73.4693 6.47333 74.1787 7.12933 74.68 7.972C75.192 8.81467 75.448 9.79067 75.448 10.9C75.448 12.0093 75.192 12.9853 74.68 13.828C74.1787 14.6707 73.4693 15.3267 72.552 15.796C71.6453 16.2653 70.5947 16.5 69.4 16.5H64.68ZM66.28 15.108H69.304C70.232 15.108 71.032 14.932 71.704 14.58C72.3867 14.228 72.9147 13.7373 73.288 13.108C73.6613 12.468 73.848 11.732 73.848 10.9C73.848 10.0573 73.6613 9.32133 73.288 8.692C72.9147 8.06267 72.3867 7.572 71.704 7.22C71.032 6.868 70.232 6.692 69.304 6.692H66.28V15.108ZM77.7303 16.596C77.4316 16.596 77.1756 16.4947 76.9622 16.292C76.7489 16.0787 76.6423 15.812 76.6423 15.492C76.6423 15.172 76.7489 14.9107 76.9622 14.708C77.1756 14.5053 77.4316 14.404 77.7303 14.404C78.0183 14.404 78.2636 14.5053 78.4663 14.708C78.6796 14.9107 78.7863 15.172 78.7863 15.492C78.7863 15.812 78.6796 16.0787 78.4663 16.292C78.2636 16.4947 78.0183 16.596 77.7303 16.596ZM81.2113 16.5V5.3H85.5793C86.5606 5.3 87.3979 5.45467 88.0913 5.764C88.7846 6.07333 89.3179 6.52133 89.6913 7.108C90.0646 7.69467 90.2513 8.39333 90.2513 9.204C90.2513 10.0147 90.0646 10.7133 89.6913 11.3C89.3179 11.876 88.7846 12.324 88.0913 12.644C87.3979 12.9533 86.5606 13.108 85.5793 13.108H82.0913L82.8113 12.356V16.5H81.2113ZM82.8113 12.516L82.0913 11.716H85.5313C86.5553 11.716 87.3286 11.4973 87.8513 11.06C88.3846 10.6227 88.6513 10.004 88.6513 9.204C88.6513 8.404 88.3846 7.78533 87.8513 7.348C87.3286 6.91067 86.5553 6.692 85.5313 6.692H82.0913L82.8113 5.892V12.516ZM92.6019 16.5V5.3H96.9699C97.9512 5.3 98.7885 5.45467 99.4819 5.764C100.175 6.07333 100.709 6.52133 101.082 7.108C101.455 7.69467 101.642 8.39333 101.642 9.204C101.642 10.0147 101.455 10.7133 101.082 11.3C100.709 11.876 100.175 12.3187 99.4819 12.628C98.7885 12.9373 97.9512 13.092 96.9699 13.092H93.4819L94.2019 12.356V16.5H92.6019ZM100.09 16.5L97.2419 12.436H98.9539L101.834 16.5H100.09ZM94.2019 12.516L93.4819 11.732H96.9219C97.9459 11.732 98.7192 11.5133 99.2419 11.076C99.7752 10.628 100.042 10.004 100.042 9.204C100.042 8.404 99.7752 7.78533 99.2419 7.348C98.7192 6.91067 97.9459 6.692 96.9219 6.692H93.4819L94.2019 5.892V12.516ZM109.283 16.628C108.43 16.628 107.635 16.484 106.899 16.196C106.174 15.908 105.544 15.508 105.011 14.996C104.478 14.4733 104.062 13.8653 103.763 13.172C103.464 12.4787 103.315 11.7213 103.315 10.9C103.315 10.0787 103.464 9.32133 103.763 8.628C104.062 7.93467 104.478 7.332 105.011 6.82C105.544 6.29733 106.174 5.892 106.899 5.604C107.624 5.316 108.419 5.172 109.283 5.172C110.136 5.172 110.92 5.316 111.635 5.604C112.36 5.88133 112.99 6.28133 113.523 6.804C114.067 7.316 114.483 7.91867 114.771 8.612C115.07 9.30533 115.219 10.068 115.219 10.9C115.219 11.732 115.07 12.4947 114.771 13.188C114.483 13.8813 114.067 14.4893 113.523 15.012C112.99 15.524 112.36 15.924 111.635 16.212C110.92 16.4893 110.136 16.628 109.283 16.628ZM109.283 15.204C109.902 15.204 110.472 15.0973 110.995 14.884C111.528 14.6707 111.987 14.372 112.371 13.988C112.766 13.5933 113.07 13.1347 113.283 12.612C113.507 12.0893 113.619 11.5187 113.619 10.9C113.619 10.2813 113.507 9.71067 113.283 9.188C113.07 8.66533 112.766 8.212 112.371 7.828C111.987 7.43333 111.528 7.12933 110.995 6.916C110.472 6.70267 109.902 6.596 109.283 6.596C108.654 6.596 108.072 6.70267 107.539 6.916C107.016 7.12933 106.558 7.43333 106.163 7.828C105.768 8.212 105.459 8.66533 105.235 9.188C105.022 9.71067 104.915 10.2813 104.915 10.9C104.915 11.5187 105.022 12.0893 105.235 12.612C105.459 13.1347 105.768 13.5933 106.163 13.988C106.558 14.372 107.016 14.6707 107.539 14.884C108.072 15.0973 108.654 15.204 109.283 15.204ZM122.72 16.628C121.856 16.628 121.062 16.4893 120.336 16.212C119.611 15.924 118.982 15.524 118.448 15.012C117.915 14.4893 117.499 13.8813 117.2 13.188C116.902 12.4947 116.752 11.732 116.752 10.9C116.752 10.068 116.902 9.30533 117.2 8.612C117.499 7.91867 117.915 7.316 118.448 6.804C118.992 6.28133 119.627 5.88133 120.352 5.604C121.078 5.316 121.878 5.172 122.752 5.172C123.638 5.172 124.448 5.316 125.184 5.604C125.92 5.892 126.544 6.324 127.056 6.9L126.064 7.892C125.606 7.444 125.104 7.11867 124.56 6.916C124.027 6.70267 123.446 6.596 122.816 6.596C122.176 6.596 121.579 6.70267 121.024 6.916C120.48 7.12933 120.006 7.428 119.6 7.812C119.206 8.196 118.896 8.65467 118.672 9.188C118.459 9.71067 118.352 10.2813 118.352 10.9C118.352 11.508 118.459 12.0787 118.672 12.612C118.896 13.1347 119.206 13.5933 119.6 13.988C120.006 14.372 120.48 14.6707 121.024 14.884C121.568 15.0973 122.16 15.204 122.8 15.204C123.398 15.204 123.968 15.1133 124.512 14.932C125.067 14.74 125.579 14.4253 126.048 13.988L126.96 15.204C126.406 15.6733 125.755 16.0307 125.008 16.276C124.272 16.5107 123.51 16.628 122.72 16.628ZM125.424 14.996V10.836H126.96V15.204L125.424 14.996ZM130.024 16.5V5.3H134.392C135.373 5.3 136.21 5.45467 136.904 5.764C137.597 6.07333 138.13 6.52133 138.504 7.108C138.877 7.69467 139.064 8.39333 139.064 9.204C139.064 10.0147 138.877 10.7133 138.504 11.3C138.13 11.876 137.597 12.3187 136.904 12.628C136.21 12.9373 135.373 13.092 134.392 13.092H130.904L131.624 12.356V16.5H130.024ZM137.512 16.5L134.664 12.436H136.376L139.256 16.5H137.512ZM131.624 12.516L130.904 11.732H134.344C135.368 11.732 136.141 11.5133 136.664 11.076C137.197 10.628 137.464 10.004 137.464 9.204C137.464 8.404 137.197 7.78533 136.664 7.348C136.141 6.91067 135.368 6.692 134.344 6.692H130.904L131.624 5.892V12.516ZM143.105 10.132H148.865V11.492H143.105V10.132ZM143.249 15.108H149.777V16.5H141.649V5.3H149.553V6.692H143.249V15.108ZM155.632 16.628C154.778 16.628 153.962 16.5 153.184 16.244C152.405 15.9773 151.792 15.636 151.344 15.22L151.936 13.972C152.362 14.3453 152.906 14.6547 153.568 14.9C154.229 15.1453 154.917 15.268 155.632 15.268C156.282 15.268 156.81 15.1933 157.216 15.044C157.621 14.8947 157.92 14.692 158.112 14.436C158.304 14.1693 158.4 13.8707 158.4 13.54C158.4 13.156 158.272 12.8467 158.016 12.612C157.77 12.3773 157.445 12.1907 157.04 12.052C156.645 11.9027 156.208 11.7747 155.728 11.668C155.248 11.5613 154.762 11.4387 154.272 11.3C153.792 11.1507 153.349 10.964 152.944 10.74C152.549 10.516 152.229 10.2173 151.984 9.844C151.738 9.46 151.616 8.96933 151.616 8.372C151.616 7.796 151.765 7.268 152.064 6.788C152.373 6.29733 152.842 5.908 153.472 5.62C154.112 5.32133 154.922 5.172 155.904 5.172C156.554 5.172 157.2 5.25733 157.84 5.428C158.48 5.59867 159.034 5.844 159.503 6.164L158.976 7.444C158.496 7.124 157.989 6.89467 157.456 6.756C156.922 6.60667 156.405 6.532 155.904 6.532C155.274 6.532 154.757 6.612 154.352 6.772C153.946 6.932 153.648 7.14533 153.456 7.412C153.274 7.67867 153.184 7.97733 153.184 8.308C153.184 8.70267 153.306 9.01733 153.552 9.252C153.808 9.48667 154.133 9.67333 154.528 9.812C154.933 9.95067 155.376 10.0787 155.856 10.196C156.336 10.3027 156.816 10.4253 157.296 10.564C157.786 10.7027 158.229 10.884 158.624 11.108C159.029 11.332 159.354 11.6307 159.6 12.004C159.845 12.3773 159.968 12.8573 159.968 13.444C159.968 14.0093 159.813 14.5373 159.503 15.028C159.194 15.508 158.714 15.8973 158.064 16.196C157.424 16.484 156.613 16.628 155.632 16.628ZM165.569 16.628C164.716 16.628 163.9 16.5 163.121 16.244C162.342 15.9773 161.729 15.636 161.281 15.22L161.873 13.972C162.3 14.3453 162.844 14.6547 163.505 14.9C164.166 15.1453 164.854 15.268 165.569 15.268C166.22 15.268 166.748 15.1933 167.153 15.044C167.558 14.8947 167.857 14.692 168.049 14.436C168.241 14.1693 168.337 13.8707 168.337 13.54C168.337 13.156 168.209 12.8467 167.953 12.612C167.708 12.3773 167.382 12.1907 166.977 12.052C166.582 11.9027 166.145 11.7747 165.665 11.668C165.185 11.5613 164.7 11.4387 164.209 11.3C163.729 11.1507 163.286 10.964 162.881 10.74C162.486 10.516 162.166 10.2173 161.921 9.844C161.676 9.46 161.553 8.96933 161.553 8.372C161.553 7.796 161.702 7.268 162.001 6.788C162.31 6.29733 162.78 5.908 163.409 5.62C164.049 5.32133 164.86 5.172 165.841 5.172C166.492 5.172 167.137 5.25733 167.777 5.428C168.417 5.59867 168.972 5.844 169.441 6.164L168.913 7.444C168.433 7.124 167.926 6.89467 167.393 6.756C166.86 6.60667 166.342 6.532 165.841 6.532C165.212 6.532 164.694 6.612 164.289 6.772C163.884 6.932 163.585 7.14533 163.393 7.412C163.212 7.67867 163.121 7.97733 163.121 8.308C163.121 8.70267 163.244 9.01733 163.489 9.252C163.745 9.48667 164.07 9.67333 164.465 9.812C164.87 9.95067 165.313 10.0787 165.793 10.196C166.273 10.3027 166.753 10.4253 167.233 10.564C167.724 10.7027 168.166 10.884 168.561 11.108C168.966 11.332 169.292 11.6307 169.537 12.004C169.782 12.3773 169.905 12.8573 169.905 13.444C169.905 14.0093 169.75 14.5373 169.441 15.028C169.132 15.508 168.652 15.8973 168.001 16.196C167.361 16.484 166.55 16.628 165.569 16.628Z" fill="#2C3D73"/>
</svg>

<svg width="180" height="21" fill="none" xmlns="http://www.w3.org/2000/svg"><path d="M29.258 3.958a9.683 9.683 0 00-12.739-.82 6.03 6.03 0 00-.45.381c-.148.137-.233.208-.347.317l-.927.899-.418.39-.42.405-5.061 4.904 4.964 4.996.41.412.41.412a7.218 7.218 0 01-.458.363 7.881 7.881 0 01-4.438 1.512 7.889 7.889 0 01-4.01-.973 7.75 7.75 0 01-2.943-2.853 7.607 7.607 0 01-1.055-3.936 7.61 7.61 0 011.131-3.914 7.755 7.755 0 013-2.798 7.891 7.891 0 017.953.36l1.045-1.011.25-.233a9.685 9.685 0 00-10.172-.616 9.508 9.508 0 00-3.767 3.68 9.33 9.33 0 00.527 10.033 9.549 9.549 0 004.134 3.276 9.698 9.698 0 005.267.604 9.63 9.63 0 004.955-2.406l.09-.084.085-.08.929-.897 5.905-5.71-4.97-4.997-.41-.41-.411-.42a7.442 7.442 0 01.948-.693 7.887 7.887 0 017.956-.206A7.747 7.747 0 0129.163 6.7a7.604 7.604 0 01-.077 7.847 7.753 7.753 0 01-2.998 2.796 7.89 7.89 0 01-7.95-.359l-.117.113-.929.898-.25.233a9.676 9.676 0 006.727 1.706 9.614 9.614 0 006.126-3.228 9.356 9.356 0 002.3-6.461 9.374 9.374 0 00-2.737-6.294v.008zm-8.653 6.59l-3.819 3.691-.416.405-.416.404-.41-.412-4.152-4.167 3.817-3.69.834-.808.409.412.41.41 3.743 3.756z" fill="#E51E2F"/><path d="M38.68 16.5V5.3h1.312l5.024 8.464h-.704l4.96-8.464h1.312l.016 11.2h-1.536l-.016-8.784h.368L45 15.14h-.736l-4.448-7.424h.4V16.5H38.68zm16.737-6.368h5.76v1.36h-5.76v-1.36zm.144 4.976h6.528V16.5h-8.128V5.3h7.904v1.392h-6.304v8.416zM64.68 16.5V5.3h4.72c1.195 0 2.245.235 3.152.704.917.47 1.627 1.125 2.128 1.968.512.843.768 1.819.768 2.928 0 1.11-.256 2.085-.768 2.928-.501.843-1.21 1.499-2.128 1.968-.907.47-1.957.704-3.152.704h-4.72zm1.6-1.392h3.024c.928 0 1.728-.176 2.4-.528a3.844 3.844 0 001.584-1.472c.373-.64.56-1.376.56-2.208 0-.843-.187-1.579-.56-2.208a3.844 3.844 0 00-1.584-1.472c-.672-.352-1.472-.528-2.4-.528H66.28v8.416zm11.45 1.488c-.298 0-.554-.101-.768-.304a1.085 1.085 0 01-.32-.8c0-.32.107-.581.32-.784.214-.203.47-.304.768-.304a1 1 0 01.736.304c.214.203.32.464.32.784s-.106.587-.32.8a1.002 1.002 0 01-.736.304zm3.481-.096V5.3h4.368c.982 0 1.819.155 2.512.464.694.31 1.227.757 1.6 1.344.374.587.56 1.285.56 2.096 0 .81-.186 1.51-.56 2.096-.373.576-.906 1.024-1.6 1.344-.693.31-1.53.464-2.512.464h-3.488l.72-.752V16.5h-1.6zm1.6-3.984l-.72-.8h3.44c1.024 0 1.798-.219 2.32-.656.534-.437.8-1.056.8-1.856s-.266-1.419-.8-1.856c-.522-.437-1.296-.656-2.32-.656h-3.44l.72-.8v6.624zm9.79 3.984V5.3h4.369c.981 0 1.819.155 2.512.464.693.31 1.227.757 1.6 1.344.373.587.56 1.285.56 2.096 0 .81-.187 1.51-.56 2.096-.373.576-.907 1.019-1.6 1.328-.694.31-1.53.464-2.512.464h-3.488l.72-.736V16.5h-1.6zm7.489 0l-2.848-4.064h1.712l2.88 4.064h-1.744zm-5.888-3.984l-.72-.784h3.44c1.024 0 1.797-.219 2.32-.656.533-.448.8-1.072.8-1.872s-.267-1.419-.8-1.856c-.523-.437-1.296-.656-2.32-.656h-3.44l.72-.8v6.624zm15.081 4.112a6.486 6.486 0 01-2.384-.432 5.766 5.766 0 01-1.888-1.2 5.68 5.68 0 01-1.248-1.824 5.676 5.676 0 01-.448-2.272c0-.821.149-1.579.448-2.272a5.498 5.498 0 011.248-1.808 5.636 5.636 0 011.888-1.216 6.403 6.403 0 012.384-.432c.853 0 1.637.144 2.352.432a5.438 5.438 0 011.888 1.2 5.19 5.19 0 011.248 1.808c.299.693.448 1.456.448 2.288 0 .832-.149 1.595-.448 2.288a5.35 5.35 0 01-1.248 1.824 5.766 5.766 0 01-1.888 1.2 6.452 6.452 0 01-2.352.416zm0-1.424c.619 0 1.189-.107 1.712-.32a4.047 4.047 0 002.288-2.272 4.3 4.3 0 00.336-1.712 4.3 4.3 0 00-.336-1.712 3.956 3.956 0 00-.912-1.36 3.934 3.934 0 00-1.376-.912 4.488 4.488 0 00-1.712-.32 4.66 4.66 0 00-1.744.32 4.136 4.136 0 00-1.376.912 4.16 4.16 0 00-.928 1.36 4.494 4.494 0 00-.32 1.712c0 .619.107 1.19.32 1.712.224.523.533.981.928 1.376.395.384.853.683 1.376.896a4.66 4.66 0 001.744.32zm13.437 1.424a6.626 6.626 0 01-2.384-.416 5.776 5.776 0 01-1.888-1.2 5.68 5.68 0 01-1.248-1.824 5.734 5.734 0 01-.448-2.288c0-.832.15-1.595.448-2.288a5.498 5.498 0 011.248-1.808 5.61 5.61 0 011.904-1.2c.726-.288 1.526-.432 2.4-.432.886 0 1.696.144 2.432.432.736.288 1.36.72 1.872 1.296l-.992.992a4.286 4.286 0 00-1.504-.976 4.65 4.65 0 00-1.744-.32 4.95 4.95 0 00-1.792.32 4.37 4.37 0 00-1.424.896 4.132 4.132 0 00-.928 1.376 4.494 4.494 0 00-.32 1.712c0 .608.107 1.179.32 1.712.224.523.534.981.928 1.376.406.384.88.683 1.424.896a4.83 4.83 0 001.776.32c.598 0 1.168-.09 1.712-.272a4.31 4.31 0 001.536-.944l.912 1.216a5.767 5.767 0 01-1.952 1.072 7.482 7.482 0 01-2.288.352zm2.704-1.632v-4.16h1.536v4.368l-1.536-.208zm4.6 1.504V5.3h4.368c.981 0 1.818.155 2.512.464.693.31 1.226.757 1.6 1.344.373.587.56 1.285.56 2.096 0 .81-.187 1.51-.56 2.096-.374.576-.907 1.019-1.6 1.328-.694.31-1.531.464-2.512.464h-3.488l.72-.736V16.5h-1.6zm7.488 0l-2.848-4.064h1.712l2.88 4.064h-1.744zm-5.888-3.984l-.72-.784h3.44c1.024 0 1.797-.219 2.32-.656.533-.448.8-1.072.8-1.872s-.267-1.419-.8-1.856c-.523-.437-1.296-.656-2.32-.656h-3.44l.72-.8v6.624zm11.481-2.384h5.76v1.36h-5.76v-1.36zm.144 4.976h6.528V16.5h-8.128V5.3h7.904v1.392h-6.304v8.416zm12.383 1.52c-.854 0-1.67-.128-2.448-.384-.779-.267-1.392-.608-1.84-1.024l.592-1.248c.426.373.97.683 1.632.928a5.885 5.885 0 002.064.368c.65 0 1.178-.075 1.584-.224.405-.15.704-.352.896-.608.192-.267.288-.565.288-.896 0-.384-.128-.693-.384-.928-.246-.235-.571-.421-.976-.56a9.617 9.617 0 00-1.312-.384c-.48-.107-.966-.23-1.456-.368a7.083 7.083 0 01-1.328-.56 2.757 2.757 0 01-.96-.896c-.246-.384-.368-.875-.368-1.472 0-.576.149-1.104.448-1.584.309-.49.778-.88 1.408-1.168.64-.299 1.45-.448 2.432-.448.65 0 1.296.085 1.936.256.64.17 1.194.416 1.663.736l-.527 1.28a4.98 4.98 0 00-1.52-.688 5.751 5.751 0 00-1.552-.224c-.63 0-1.147.08-1.552.24-.406.16-.704.373-.896.64a1.552 1.552 0 00-.272.896c0 .395.122.71.368.944.256.235.581.421.976.56.405.139.848.267 1.328.384.48.107.96.23 1.44.368.49.139.933.32 1.328.544.405.224.73.523.976.896.245.373.368.853.368 1.44 0 .565-.155 1.093-.465 1.584-.309.48-.789.87-1.439 1.168-.64.288-1.451.432-2.432.432zm9.937 0a7.79 7.79 0 01-2.448-.384c-.779-.267-1.392-.608-1.84-1.024l.592-1.248c.427.373.971.683 1.632.928a5.885 5.885 0 002.064.368c.651 0 1.179-.075 1.584-.224.405-.15.704-.352.896-.608.192-.267.288-.565.288-.896 0-.384-.128-.693-.384-.928-.245-.235-.571-.421-.976-.56a9.617 9.617 0 00-1.312-.384 26.54 26.54 0 01-1.456-.368 7.083 7.083 0 01-1.328-.56 2.757 2.757 0 01-.96-.896c-.245-.384-.368-.875-.368-1.472 0-.576.149-1.104.448-1.584.309-.49.779-.88 1.408-1.168.64-.299 1.451-.448 2.432-.448.651 0 1.296.085 1.936.256.64.17 1.195.416 1.664.736l-.528 1.28a4.98 4.98 0 00-1.52-.688 5.746 5.746 0 00-1.552-.224c-.629 0-1.147.08-1.552.24-.405.16-.704.373-.896.64a1.56 1.56 0 00-.272.896c0 .395.123.71.368.944.256.235.581.421.976.56.405.139.848.267 1.328.384.48.107.96.23 1.44.368.491.139.933.32 1.328.544.405.224.731.523.976.896s.368.853.368 1.44a2.92 2.92 0 01-.464 1.584c-.309.48-.789.87-1.44 1.168-.64.288-1.451.432-2.432.432z" fill="#2C3D73"/></svg>
